X:1
T:Lamentation of Sir Richard Cantillon
M:3/4
L:1/8
R:Air
B:Stanford/Petrie - The Complete Petrie Collection of Ancient Irish Music, No. 1025  (1905)
Z:AK/Fiddler's Companion
K:F
cB|A2G2FA|A4 cd/e/|fg/f/ edcA|{A}G4 Ac|
d2 df dc/A/|A2G2 Ac>A|G2F2F2|F4:|]

